X:1
T:Sligo Maid, The
R:reel
M:4/4
K:Ador
|:A2BA Bdef|gedB AGEF|G2BG dGBG|DEGA BGdB|
A2BA (3B^cd ef|gedB AGEG|B2BG A2GE|1 DEGA BAAG:|2 DEGA BAAg||
|:eaag a2ga|bgaf gfed|eggf ~g3e|dega bgag|
eaag a2ga|bgaf gedB|G2Bd g2ge|1 dBGA BAAg:|2 dBGA BAAG||
